X:610
T:Northlands, The
C:Joe Buchanan's Scottish Tome - Page 177.2
I:177 2
Z:Carl Allison
R:Reel
L:1/8
M:4/4
K:G
W:Play 1-2-1-3-1
%%vskip 5
P:1
D |S B/B/B/B/ BD | GD BD | G/G/G/G/ GA | Bc dg |
f/f/f/f/ fA | cd fe | d/d/d/d/ dB | cA FD |
B/B/B/B/ BD | GD BD | G/G/G/G/ GA | Bc dg |
e/e/e/e/ ae | d/d/d/d/ fe | d/e/f/e/ d/c/B/A/ | G2 A/A/ |]
P:2
AA/A/ AA/A/ | AF DA/A/ | AG EA/A/ | AF DA/A/ |
AA/A/ AA/A/ | Af dA/A/ | Ag eA/A/ | Af dA/A/ |
AA/A/ AA/A/ | AF DA/A/ | AG EA/A/ | AF DA/A/ |
AA/A/ AA/A/ | Af dA/A/ | Bg ea | d H:|
P:3
B2 G>D | DB GD | G2 D>G | F/F/F/F/ FE |
B2 G>D | DB GD | G2 D2 | F/F/F/F/ FE |
B2 G>D | DB GD | B2 d^d | (e2 e2) |
e2 fe | d/B/G/E/ D2 | Dd Fd | G2 D2 |]

